www/assets/icons/credit_card_off.svg

<svg width="24" height="24" viewBox="0 0 24 24" xmlns="http://www.w3.org/2000/svg" fill='currentColor'><path d="M22.555 21.195L2.75497 1.39502L1.34497 2.80502L2.89497 4.35502C2.74497 4.63502 2.66497 4.95502 2.66497 5.29502L2.65497 17.295C2.65497 18.405 3.54497 19.295 4.65497 19.295H17.825L21.135 22.605L22.555 21.195ZM4.65497 11.295V7.29502H5.82497L9.82497 11.295H4.65497ZM7.48497 3.29502H20.655C21.765 3.29502 22.655 4.18502 22.655 5.29502V17.295C22.655 17.635 22.575 17.955 22.425 18.235L15.485 11.295H20.655V7.29502H11.485L7.48497 3.29502Z"/></svg>

<svg xmlns="http://www.w3.org/2000/svg" width="24" height="24" viewBox="0 0 24 24" fill='currentColor'><path d="m22.555 21.195-19.8-19.8-1.41 1.41 1.55 1.55c-.15.28-.23.6-.23.94l-.01 12c0 1.11.89 2 2 2h13.17l3.31 3.31zm-17.9-9.9v-4h1.17l4 4zm2.83-8h13.17c1.11 0 2 .89 2 2v12c0 .34-.08.66-.23.94l-6.94-6.94h5.17v-4h-9.17z"/></svg>
